X:645
T:The Sailor's Wife
M:6/8
L:1/8
S:Colin Hume's website,  colinhume.com  - chords can also be printed below the stave.
N:This variant is played by the whistle player in River's Dance from the wonderful science fiction series "Firefly".
Q:3/8=112
K:Dm
P:A
A |: "Dm"DEF E2D | "/"Ade f2g | "Dm"agf edc | "Am"AcA "C"GEC |
"Dm"DEF E2D | "/"Ade f2g | "Dm"aba "Am7"gfe |1 "Dm"d3 d3 :|2 "Dm"d3 d2e |
P:B
|: "F"fga fga | "/"fab agf | "C"ecg ecg | "/"ega "Am7"gfe |
"Dm"fga agf | "Am7"ecg gab | "Dm"aba "Am7"gfe |1 "Dm"d3 d2e :|2 "Dm"d3 d3 |]

